X:1
T: Barley Cakes
C:
R:Jig
Q:180
K:G
M:6/8
L:1/16
c2|B4G2 Bcd2B2|A4=F2 ABc2A2|B4G2 Bcd2B2|d6 g6|B4G2 Bcd2B2|A4=F2 A2B2c2|d2c2B2 c2B2A2|G6 G,4c2|
B4G2 Bcd2B2|A4=F2 ABc2A2|B4G2 Bcd2B2|d6 g6|B4G2 Bcd2B2|A4=F2 A2B2c2|d2c2B2 c2B2A2|G6 G,4|
|:d2|g2a2g2 f2g2f2|e4d2 B6|g2a2g2 f4g2|a6 d6|c4a2 B4g2|A2B2G2 F2E2D2|G2A2B2 A2G2F2|G6 G4d2|
g2a2g2 f2g2f2|e4d2 B6|g2a2g2 f4g2|a6 d6|c4a2 B4g2|A2B2G2 F2E2D2|G2A2B2 A2G2F2|G6 G4:|
